static/assets/images/exchanges/stellaswap.svg

<svg width="257" height="256" viewBox="0 0 257 256" fill="none" xmlns="http://www.w3.org/2000/svg">
<path fill-rule="evenodd" clip-rule="evenodd" d="M102.425 221.239C125.643 245.748 151.361 254.847 169.867 255.966C170.597 256.011 171.33 256.011 172.061 255.966C181.039 255.636 189.396 255.159 197.497 251.969C205.237 249.048 212.604 245.213 219.44 240.546C229.578 233.437 238.216 224.39 244.858 213.924C252.629 202.41 258.718 180.922 256.561 164.2C255.469 154.836 253.112 145.665 249.557 136.937C247.06 130.915 243.862 125.21 240.03 119.94C235.14 112.837 226.703 106.048 219.44 101.414C206.274 93.5304 201.971 91.9853 185.264 85.0746C164.215 76.3679 141.129 60.8659 131.009 55.7688C126.589 53.5425 128.402 59.3811 129.586 61.2459C134.339 68.735 136.513 74.0248 137.409 76.4321C138.287 78.7606 138.579 80.484 136.623 82.2075C134.666 83.9309 132.965 83.3076 131.137 82.0975L131.134 82.0954C131.134 82.0954 13.1144 6.78034 1.97244 0.652917C-11.4404 -6.72339 46.0655 49.6727 98.3505 105.5C99.8472 107.098 100.652 108.824 100.994 110.019C101.336 111.214 101.288 112.487 100.855 113.652C99.9592 116.292 97.6369 116.842 95.3694 117.025C94.6456 117.084 93.92 117.129 93.1936 117.175C91.6446 117.272 90.0924 117.369 88.5487 117.594C87.2543 117.748 86.0086 118.182 84.8977 118.866C83.7868 119.55 82.8371 120.468 82.114 121.555C81.3909 122.643 80.9116 123.875 80.7092 125.166C80.5069 126.457 80.5862 127.777 80.9417 129.034C82.496 134.755 83.9589 140.457 85.0012 146.269C86.2447 153.218 83.4469 155.73 76.8274 153.218C69.4122 150.41 62.1135 147.401 54.7798 144.378C51.2443 142.921 47.7007 141.46 44.132 140.017C38.6462 137.78 34.6654 136.136 27.6746 133.398C24.9173 132.318 23.3093 134.957 24.8401 137.498C27.1243 141.288 71.7667 188.875 102.425 221.239ZM223.426 152.952C226.122 159.726 227.434 166.974 227.285 174.266C227.102 202.208 202.379 229.05 172.738 227.84C144.047 229.674 118.794 200.668 118.794 174.669C118.885 142.877 143.059 118.84 172.427 118.675C179.7 118.603 186.915 119.995 193.642 122.771C200.369 125.546 206.471 129.647 211.587 134.832C216.703 140.017 220.729 146.179 223.426 152.952Z" fill="url(#paint0_linear_10907_1023)"/>
<path d="M61.8168 121.857C61.7964 124.086 62.6454 126.234 64.1827 127.844C65.72 129.454 67.8239 130.398 70.0455 130.474C71.1623 130.465 72.2652 130.226 73.2863 129.772C74.3073 129.318 75.2248 128.66 75.9822 127.837C76.7395 127.014 77.3207 126.044 77.6897 124.987C78.0588 123.93 78.2079 122.809 78.1279 121.692C78.0353 119.458 77.0965 117.344 75.5029 115.78C73.9094 114.217 71.7811 113.321 69.5518 113.276C67.4081 113.431 65.4069 114.41 63.9657 116.009C62.5245 117.608 61.7547 119.703 61.8168 121.857Z" fill="url(#paint1_linear_10907_1023)"/>
<path d="M117.762 42.5077C122.209 42.2494 125.661 39.3175 125.643 34.2388C125.513 32.1494 124.615 30.1825 123.122 28.7193C121.628 27.256 119.923 26.4087 117.561 26.3182C112.905 26.1399 108.708 29.8081 108.838 34.4771C108.909 37.0156 109.976 38.8333 111.648 40.338C113.32 41.8428 115.233 42.6546 117.762 42.5077Z" fill="url(#paint2_linear_10907_1023)"/>
<path d="M21.5226 93.8735C21.5725 92.8667 21.4113 91.8606 21.0492 90.9202C20.6871 89.9798 20.1322 89.1261 19.4204 88.4141C18.7087 87.7022 17.8558 87.1479 16.9171 86.7871C15.9783 86.4264 14.9744 86.2671 13.9704 86.3196C11.9693 86.502 10.1007 87.4012 8.70704 88.8525C7.31333 90.3038 6.48782 92.21 6.38174 94.2219C6.52449 96.1666 7.37767 97.9901 8.7779 99.3433C10.1781 100.697 12.027 101.484 13.9704 101.556C14.9807 101.59 15.9871 101.414 16.9261 101.038C17.8651 100.663 18.7162 100.096 19.4258 99.3744C20.1355 98.6525 20.6882 97.791 21.049 96.8442C21.4099 95.8975 21.5711 94.8859 21.5226 93.8735Z" fill="url(#paint3_linear_10907_1023)"/>
<path d="M172.738 227.84C202.379 229.142 227.102 202.208 227.285 174.266C227.434 166.974 226.122 159.726 223.426 152.952C220.729 146.179 216.703 140.017 211.587 134.832C206.471 129.647 200.369 125.546 193.642 122.771C186.915 119.995 179.7 118.603 172.427 118.675C143.059 118.84 118.885 142.877 118.794 174.669C118.702 200.668 144.047 229.674 172.738 227.84Z" fill="url(#paint4_linear_10907_1023)"/>
<defs>
<linearGradient id="paint0_linear_10907_1023" x1="276.201" y1="161.278" x2="-22.8149" y2="80.6805" gradientUnits="userSpaceOnUse">
<stop stop-color="#E2107B"/>
<stop offset="1" stop-color="#C991DD"/>
</linearGradient>
<linearGradient id="paint1_linear_10907_1023" x1="256.67" y1="127.727" x2="-1.09585" y2="127.727" gradientUnits="userSpaceOnUse">
<stop stop-color="#E2107B"/>
<stop offset="1" stop-color="#C991DD"/>
</linearGradient>
<linearGradient id="paint2_linear_10907_1023" x1="257.004" y1="128.056" x2="0.330274" y2="128.056" gradientUnits="userSpaceOnUse">
<stop stop-color="#E2107B"/>
<stop offset="1" stop-color="#C991DD"/>
<stop offset="1" stop-color="#C991DD"/>
</linearGradient>
<linearGradient id="paint3_linear_10907_1023" x1="257.47" y1="127.586" x2="0.620399" y2="127.586" gradientUnits="userSpaceOnUse">
<stop stop-color="#E2107B"/>
<stop offset="1" stop-color="#C991DD"/>
</linearGradient>
<linearGradient id="paint4_linear_10907_1023" x1="276.055" y1="224.037" x2="141.012" y2="172.116" gradientUnits="userSpaceOnUse">
<stop stop-color="#C991DD"/>
<stop offset="1" stop-color="#E2107B"/>
</linearGradient>
</defs>
</svg>

<svg xmlns="http://www.w3.org/2000/svg" fill="none" viewBox="0 0 257 256"><path fill="url(#paint0_linear_10907_1023)" fill-rule="evenodd" d="M102.425 221.239c23.218 24.509 48.936 33.608 67.442 34.727q1.096.068 2.194 0c8.978-.33 17.335-.807 25.436-3.997a104 104 0 0 0 21.943-11.423 94.1 94.1 0 0 0 25.418-26.622c7.771-11.514 13.86-33.002 11.703-49.724a104.3 104.3 0 0 0-7.004-27.263 83 83 0 0 0-9.527-16.997c-4.89-7.103-13.327-13.892-20.59-18.526-13.166-7.884-17.469-9.429-34.176-16.34-21.049-8.706-44.135-24.208-54.255-29.305-4.42-2.227-2.607 3.612-1.423 5.477 4.753 7.489 6.927 12.779 7.823 15.186.878 2.329 1.17 4.052-.786 5.775-1.957 1.724-3.658 1.1-5.486-.11l-.003-.002S13.114 6.78 1.972.653C-11.44-6.723 46.066 49.673 98.351 105.5c1.496 1.598 2.301 3.324 2.643 4.519a5.83 5.83 0 0 1-.139 3.633c-.896 2.64-3.218 3.19-5.486 3.373-.723.059-1.449.104-2.175.15-1.55.097-3.102.194-4.645.419a9 9 0 0 0-3.651 1.272 9.03 9.03 0 0 0-4.189 6.3 9.1 9.1 0 0 0 .233 3.868c1.554 5.721 3.017 11.423 4.06 17.235 1.243 6.949-1.555 9.461-8.175 6.949-7.415-2.808-14.713-5.817-22.047-8.84-3.536-1.457-7.08-2.918-10.648-4.361-5.486-2.237-9.467-3.881-16.457-6.619-2.758-1.08-4.366 1.559-2.835 4.1 2.284 3.79 46.927 51.377 77.585 83.741m121.001-68.287a54.6 54.6 0 0 1 3.859 21.314c-.183 27.942-24.906 54.784-54.547 53.574-28.691 1.834-53.944-27.172-53.944-53.171.091-31.792 24.265-55.829 53.633-55.994a54.2 54.2 0 0 1 21.215 4.096 54.3 54.3 0 0 1 17.945 12.061 54.5 54.5 0 0 1 11.839 18.12" clip-rule="evenodd"/><path fill="url(#paint1_linear_10907_1023)" d="M61.817 121.857a8.56 8.56 0 0 0 2.366 5.987 8.5 8.5 0 0 0 5.862 2.63 8.1 8.1 0 0 0 3.241-.702 8.18 8.18 0 0 0 4.404-4.785 8.2 8.2 0 0 0 .438-3.295 8.8 8.8 0 0 0-2.625-5.912 8.75 8.75 0 0 0-5.951-2.504 8.33 8.33 0 0 0-5.586 2.733 8.38 8.38 0 0 0-2.15 5.848"/><path fill="url(#paint2_linear_10907_1023)" d="M117.762 42.508c4.447-.259 7.899-3.19 7.881-8.27a8.46 8.46 0 0 0-2.521-5.519c-1.494-1.463-3.199-2.31-5.561-2.4-4.656-.18-8.853 3.49-8.723 8.158.071 2.539 1.138 4.356 2.81 5.861s3.585 2.317 6.114 2.17"/><path fill="url(#paint3_linear_10907_1023)" d="M21.523 93.874a7.22 7.22 0 0 0-2.103-5.46 7.2 7.2 0 0 0-5.45-2.094 8.35 8.35 0 0 0-5.263 2.533 8.4 8.4 0 0 0-2.325 5.369 7.93 7.93 0 0 0 2.396 5.121 7.9 7.9 0 0 0 5.192 2.213 7.31 7.31 0 0 0 7.079-4.712c.36-.947.522-1.958.474-2.97"/><path fill="url(#paint4_linear_10907_1023)" d="M172.738 227.84c29.641 1.302 54.364-25.632 54.547-53.574a54.6 54.6 0 0 0-3.859-21.314 54.5 54.5 0 0 0-11.839-18.12 54.3 54.3 0 0 0-17.945-12.061 54.2 54.2 0 0 0-21.215-4.096c-29.368.165-53.542 24.202-53.633 55.994-.092 25.999 25.253 55.005 53.944 53.171"/><defs><linearGradient id="paint0_linear_10907_1023" x1="276.201" x2="-22.815" y1="161.278" y2="80.68" gradientUnits="userSpaceOnUse"><stop stop-color="#E2107B"/><stop offset="1" stop-color="#C991DD"/></linearGradient><linearGradient id="paint1_linear_10907_1023" x1="256.67" x2="-1.096" y1="127.727" y2="127.727" gradientUnits="userSpaceOnUse"><stop stop-color="#E2107B"/><stop offset="1" stop-color="#C991DD"/></linearGradient><linearGradient id="paint2_linear_10907_1023" x1="257.004" x2=".33" y1="128.056" y2="128.056" gradientUnits="userSpaceOnUse"><stop stop-color="#E2107B"/><stop offset="1" stop-color="#C991DD"/><stop offset="1" stop-color="#C991DD"/></linearGradient><linearGradient id="paint3_linear_10907_1023" x1="257.47" x2=".62" y1="127.586" y2="127.586" gradientUnits="userSpaceOnUse"><stop stop-color="#E2107B"/><stop offset="1" stop-color="#C991DD"/></linearGradient><linearGradient id="paint4_linear_10907_1023" x1="276.055" x2="141.012" y1="224.037" y2="172.116" gradientUnits="userSpaceOnUse"><stop stop-color="#C991DD"/><stop offset="1" stop-color="#E2107B"/></linearGradient></defs></svg>
